icons/mic-off-line.svg

<svg xmlns="http://www.w3.org/2000/svg" width="24" height="24" fill="none"><g clip-path="url(#a)"><g><path fill="#121212" d="M16.4246 17.8391C15.3697 18.4361 14.2044 18.8124 12.9996 18.9451V23.0001H10.9996V18.9451C8.97071 18.7176 7.07936 17.8075 5.63575 16.3639C4.19215 14.9203 3.28199 13.0289 3.05458 11.0001H5.06958C5.22548 12.0795 5.63137 13.1075 6.25489 14.0023C6.87842 14.8971 7.70235 15.6339 8.661 16.1539C9.61965 16.6739 10.6865 16.9628 11.7766 16.9976C12.8666 17.0323 13.9498 16.812 14.9396 16.3541L13.3886 14.8041C12.6438 15.0194 11.8591 15.0587 11.0965 14.9186C10.3339 14.7786 9.61437 14.4631 8.99468 13.9972C8.37499 13.5312 7.87215 12.9275 7.52589 12.2338C7.17964 11.5401 6.99945 10.7754 6.99958 10.0001V8.41405L1.39258 2.80805L2.80758 1.39305L22.6066 21.1931L21.1916 22.6071L16.4246 17.8391ZM9.03258 10.4471L11.5526 12.9671C10.9185 12.8713 10.3317 12.5749 9.87818 12.1215C9.42469 11.668 9.12836 11.0812 9.03258 10.4471ZM19.3746 15.1601L17.9316 13.7181C18.4406 12.9081 18.7876 11.9881 18.9286 11.0001H20.9446C20.7795 12.4967 20.2395 13.9275 19.3746 15.1601ZM16.4646 12.2511L14.9166 10.7031C14.9706 10.4771 14.9996 10.2431 14.9996 10.0001V6.00005C15.0003 5.29476 14.7525 4.61177 14.2997 4.07102C13.8468 3.53028 13.218 3.16636 12.5235 3.04318C11.8291 2.91999 11.1134 3.04543 10.5023 3.39744C9.8911 3.74946 9.4235 4.30555 9.18158 4.96805L7.68558 3.47105C8.24068 2.52367 9.09222 1.78536 10.1087 1.37011C11.1252 0.954861 12.2501 0.885767 13.3098 1.17349C14.3694 1.46122 15.3049 2.08977 15.9718 2.9621C16.6387 3.83443 16.9999 4.90202 16.9996 6.00005V10.0001C17.0007 10.7819 16.8178 11.553 16.4656 12.2511H16.4646Z"/></g></g><defs><clipPath id="a"><rect width="24" height="24" fill="white"/></clipPath></defs></svg>

<svg width="24" height="24" fill="none" xmlns="http://www.w3.org/2000/svg"><g clip-path="url(#a)"><path d="M16.425 17.84A8.942 8.942 0 0 1 13 18.944V23h-2v-4.055A9.005 9.005 0 0 1 3.055 11H5.07a7.002 7.002 0 0 0 9.87 5.354l-1.551-1.55A5 5 0 0 1 6.999 10V8.414L1.394 2.808l1.415-1.415 19.799 19.8-1.415 1.414-4.767-4.768Zm-7.392-7.393 2.52 2.52a3.003 3.003 0 0 1-2.52-2.52Zm10.342 4.713-1.443-1.442c.509-.81.856-1.73.997-2.718h2.016a8.951 8.951 0 0 1-1.57 4.16Zm-2.91-2.909-1.548-1.548c.054-.226.083-.46.083-.703V6a3 3 0 0 0-5.818-1.032L7.686 3.471A5 5 0 0 1 17 6v4a4.982 4.982 0 0 1-.534 2.251h-.001Z" /></g><defs><clipPath id="a"><path fill="#fff" d="M0 0h24v24H0z"/></clipPath></defs></svg>
